X: 4976
T: Brenda's Request
R: jig
M: 6/8
K: Eminor
|:B,2E EDB,|GAB EDB,|BGG dGG|BAA AGE|
BAB dBd|ege dBG|AGA B2A|GEE E2D:|
|:g2e dBd|gee edB|gee aga|bge edB|
g2e fed|edB BAG|AGA BAB|1 GEE Egf:|2 GEE E2D||

